X: 8827
T: Cuil Aodha, The
R: jig
M: 6/8
K: Amajor
e|:"A"age dBe|A/B/A A c2d|edc dBA|"E"GFE dcB|
"A"A>BA AGA|"E"B>cB gab|"D"age dBe|1 "A"ABA {c}A2e:|2 "A"ABA {c}Ace||
|:"A"a>ba aga|"E"bef gab|"D"a/g/f e dBe|"E"dBA GAB|
"A"A2a {c'}aga|"E"bef gab|"D"a/g/f e dBe|1 "A"ABA {c}A2e:|2 "A"ABA {c}A3||

